X:102
T:Nora Crionna
Z: id:dc-jig-83
M:6/8
L:1/8
K:G Major
G2A BAG|A2B cBA|dBd gdB|ABA dcA|!
G2A BAG|dcB ABd|faf gdB|A2B cBA:|!
dBd gdB|ded dBc|dBd gdB|A2B cBA|!
[1 dBd gdB|ded def|gfa gdB|A2B cBA:|!
[2 dBd gdB|GBd g2a|bge dcB|A2B cBA|]!

